X: 39272
T: Tailor's Twist, The
R: hornpipe
M: 4/4
K: Dmajor
|:(3gfA|DA FD AF dA|Bg ed ce ag|fe dc Bg ed|ce Bc AF GE|
DA FD AF dA|Bg ed ce ag|fe dc Bg ec|dz dc d2:|
|:fg|abaf df af|ba gf eA ce|fg gA (3Bcd ef|ge fd eg fe|
d2 (3gfe dA FA|Bg ed ce ag|fA dA Bg ec|dz dc d2:|

